X:1434
T:Five Miles Away
M:C|
L:1/8
N:"collected by F. O'Neill"
B:O'Neill's 1434
Z:"Transcribed by Bob Safranek, rjs@gsp.org"
K:D
d2 edB ABAF|d2 AF Agfe|dedF ABAF|GFEF GABc|
d2 edB ABAF|d2 AF Agfe|dedF ABAF|GBAG FD D||
g|fdAd       fdad|fdAd    ceeg|fdAd fdaf|bage fddg|
fdAd       fdad|fdAd    ceeg|3fga ge fdec|dABG FD D z|]
